X:1
T:D Major Oliver Holden, 1800
T:Unknown Author First published in 1800
T:Dedicatory Hymn No copyright. Transcribed from Plain Psalmody, 1800.
%%score [ 1 2 3 4 ]
L:1/8
M:2/4
K:D
V:1 treble nm="Treble" snm="Tr."
V:2 treble nm="Counter" snm="C."
V:3 treble-8 nm="Tenor" snm="T."
V:4 bass nm="Bass" snm="B."
V:1
 D2 | A3 d | A>F D2 | B2 c>e | d3 d | dc ed | dB f e/d/ | cB AG | F3 A | d3 A | F2 A2 | G2 A2 | %12
w: 1.~Let|flow- ing|num- * bers|sweet- ly *|rise, And|waft * * our|prai- * * ses *|to * the *|skies, *||||
 F3 F | A3 A | AF dc | B2 ^A2 | B3 G | FA de | cc Ac | dd dd | e2 d2 | c3 d | dc BA | de fg | %24
w: ||||||||||||
 f2 e2 | d4 |] %26
w: ||
V:2
 z2 | z4 | z4 | z4 | z4 | z4 | z4 | z4 | z2 z D | F3 F | D2 D2 | D2 C2 | D3 D | FE GF | F3 G | %15
w: ||||||||Let|flow- ing|num- bers|sweet- ly|rise, And|waft * * our|prai- ses|
 F2 F2 | F3 E | FF GG | AA FA | AA AF | E2 E2 | E3 F | GE GG | A3 B | A2 G2 | F4 |] %26
w: to the|skies, For|all the bles- sings|life be- stows, And|all the joys the|gos- pel|shows, And|all * * the|joys the|gos- pel|shows.|
V:3
 D2 | F3 F | F>D D2 | G2 A2 | F3 F | FE GF | FG AB | AG FE | D3 D | A3 d | A>F D2 | B2 c2 | d3 d | %13
w: 1.~Let|flow- ing|num- * bers|sweet- ly|rise, And|waft * * our|prai- * * ses|to * the *|skies, *|||||
 dc ed | dB fe | d2 c2 | B3 c | dd BB | ee de | ff fd | c2 B2 | A3 A | Bc de | fg fe | d2 c2 | %25
w: ||||||||||||
 d4 |] %26
w: |
V:4
 z2 | z4 | z4 | z4 | z4 | z4 | z4 | z4 | z2 z D, | D,3 D, | D,2 D,2 | G,2 A,2 | D,3 D, | A,3 D, | %14
 D3 A, | F,2 F,2 | B,,3 A,, | D,D, G,G, | D,D, F,A, | DD DD, | E,2 E,2 | A,3 F, | G,A, B,G, | %23
 F,E, D,G, | A,2 A,2 | D,4 |] %26

